X:244
T:the Kirrie Kebbuck
O:scotland
R:Strathspey
M:4/4
C:J. Scott Skinner
K:D
B|\
A<F F>A B<G G>B|c<A e>c (3dfe (3dcB|\
A<F F>A B<G G>B|(3Agf (3edc (d2 d)::
g|\
f>g a>f (3dag (3fed|g>a b>g (3eba (3gfe\
|1 f>g a>f (3dag (3fed|
c/B/A g/f/e (d2 d3/2)\
:|2(3fed (3edc d>B A>G|(3FED E>C D3|]
